X: 25
T: Rakish Paddy
Z: RobSheldrick
S: https://thesession.org/tunes/86#setting51897
R: reel
M: 4/4
L: 1/8
K: Ador
|:c4 c2 AB|cBcG EFGc|Add^c de=fe|dcAG FGAB|
c2 cBcd AB|cAG=F EDCE|D2 (3EFG ABcA|dcAG FGAB:|
|:eg ~g2 ag ~g2|eg ~g2 edcd|ea ~a2 ba ~a2|ea ~a2 edcd|
ec ~c2 acgc|eage def(a|a)fge fded|dcAG FDD2:|

